X: 119
T: Hide and go seek
C: anon.
O: Ireland
B: Francis O'Neill: "The Dance Music of Ireland" (1907) no. 119
R: Double jig
Z: Transcribed by Frank Nordberg - http://www.musicaviva.com
F: http://www.musicaviva.com/abc/tunes/ireland/oneill-1001/oneill-1001-011
9.abc
M: 6/8
L: 1/8
K: Em
d|BGE EGE|EGE EdB|AFD DFD|DFA d^cd|BGE EGE|EGE (d2e)|fdB AG(F|G)EE E2::B|
eBe gfe|bge efg|
ded fed|afd def|[1 efe gfe|bge edc|BcB AG(A|B)GE E2:|[2 gfg aga|bag fga|g
fe dB(A|B)GE E2|]
W:
W:
W: From Musica Viva - http://www.musicaviva.com
W: the Internet center for free sheet music downloads.


